X:1
T:Missa Hercules Dux Ferrariae
T:Missa Hercules Dux Ferrariae: Gloria 
T:Josquin des Prez
C:Josquin des Prez
%%score 1 2 3 4
L:1/8
Q:1/4=212
M:2/1
K:C
V:1 treble nm="Soprano" snm="S."
V:2 treble-8 nm="Alto" snm="A."
V:3 treble-8 nm="Tenor" snm="T."
V:4 bass nm="Bass" snm="B."
V:1
 z8 A8 | A8 c8 | B8 A8- | A4 G4 A4 F4 | E4 A4 B4 G4 | A4 F4 E8 | D8 z4 D4 | E8 E8 | D8 z4 D4 | %9
 E4 E4 E4 E4 | D8 z4 D4 | E4 C4 E8 | D4 F8 E2 D2 | C16 | z16 | z16 | A8 _B4 A4- | A4 F4 G4 A4 | %18
 F6 D2 E4 D4 | z4 D4 C4 D4- | D2 E2 F2 D2 E4 D4 | z4 A4 G4 A4- | A2 B2 c2 A2 B4 c4- | %23
 c2 B2 A6 ^G2 G2 ^F2 | A8 z4 A4 | B4 G4 (B8 | A8) z4 A4 | B4 G4 (B8 | A8) z4 A4 | G4 A4 c6 B2 | %30
 G4 A6 ^G2 G2 ^F2 | A16 | z4 D4 C4 D4- | D2 E2 F2 G2 A4 _B4- | B2 A2 A8 G4 | A4 c4 B8 | A8 z4 G4 | %37
 A4 F6 D2 E4 | F4 D6 B,2 C4 | D2 E2 F2 D2 E8 | D4 d6 c2 d2 B2 | c4 A6 G2 E2 F2 | %42
 G2 A2 B2 c2 d4 B4 | c4 A6 G2 E2 F2 | G2 A2 B2 c2 d4 B4 | c4 F2 G2 A2 B2 c4- | c2 B2 G6 A2 _B4- | %47
 B4 A4[Q:1/4=160] G8 | !fermata!^F16 ||[Q:1/4=212] z16 | z16 | z16 | z16 | z4 A4 _B4 A4- | %54
 A4 G2 F2 E8 | D4 A4 _B4 A4- | A4 G2 F2 (E8 | D8) z8 | z16 | z16 | z16 | z8 A8- | A4 A4 A8 | %63
 G4 G4 G4 G4 | F4 D2 E2 F2 G2 A4 | D4 G8 E4 | E6 C2 C6 A,2 | A,8 z8 | z16 | z16 | z16 | z16 | z16 | %73
 z16 | z4 G4 G4 G4 | C4 F6 G2 A4 | D4 E6 F2 G4 | C4 F6 G2 A4- | A2 B2 c8 B2 A2 | G8 z4 G4 | %80
 A4 F4 A6 G2 | E4 A,2 B,2 C2 D2 E2 F2 | G6 F2 D4 G4 | C4 F6 G2 A4 | E4 A,2 B,2 C2 D2 E2 F2 | %85
 G6 A2 B4 A4- | A4 G2 F2 E8 | z4 D4 A4 B4 | c6 B2 A4 G4 | F4 D4 A4 B4 | c6 B2 A4 G4 | F4 D4 A4 B4 | %92
 c6 B2 G4 A4 | z4 F6 G2 _B4 | z4 A6 _B2 d4 | c6 B2 G4 A4 | z4 F6 G2 _B4 | A4 F4 _B8 | A8 D6 E2 | %99
 F16- |[Q:1/4=112] !fermata!F16 |] %101
V:2
 d8 d8 | f8 e8 | d12 c4 | d4 B4 A4 d4 | e4 c4 d4 B4 | A4 d4 e4 c4 | d4 f8 e2 d2 | c8 z4 c4 | %8
 d4 D4 F4 D4 | A8 G4 A4 | F4 G6 F2 D4 | z4 A4 G4 A4 | (F8 G8) | A6 G2 A2 B2 c2 d2 | %14
 e4 d6 ^c2 c2 B2 | d16 | z16 | z16 | z16 | z16 | z4 d4 c4 d4- | d2 e2 f2 d2 e4 d4 | z4 A4 G4 A4- | %23
 A2 B2 c2 A2 B8 | A4 d4 c4 A4 | e8 d8 | z4 d4 c4 A4 | e8 d8 | z4 d4 c4 A4 | e8 z4 e4- | e4 d4 e8 | %31
 c4 f4 e4 d4 | f8 e4 d4 | f12 e4 | c8 d8 | e16 | z16 | z16 | z16 | z8 A8 | B4 G4 B8 | A8 z4 A4 | %42
 B4 G4 B8 | A8 z4 A4 | B4 G4 B8 | A4 d4 c4 A4 | c6 B2 G8- | G4 A4 _B8 | !fermata!A16 || %49
 A8 _B4 A4- | A4 G2 F2 E8 | D4 A4 _B4 A4- | A4 G2 F2 E8 | D8 d8 | c8 c8 | d6 c2 d2 e2 f4- | %56
 f4 e2 d2 c2 d2 e2 c2 | d16 | z16 | z16 | z16 | z8 d8 | d4 d4 d4 A4 | B4 G4 B4 c4 | d8 d6 B2 | %65
 B6 G2 G6 E2 | E8 z4 e4- | e4 c4 d4 e4 | A4 z4 A4 B4 | c4 d4 B6 G2 | G4 z4 G4 A4 | B4 c4 A4 B4 | %72
 c4 d4 e4 A2 B2 | c2 d2 e8 d4 | e4 c4 B8 | z4 d6 c2 A4 | B4 c6 B2 G4 | z4 d4 c4 f4 | %78
 e4 A2 B2 c2 d2 e4 | z4 e4 d4 e4 | c4 d4 A4 c4- | c2 d2 e4 A4 c4- | c2 B2 G2 A2 B4 c4 | %83
 A4 d6 c2 A4- | A2 B2 c2 d2 e4 c4 | B4 e6 d2 f4- | f4 g2 f2 e2 f2 g2 e2 | (3d4 f4 e4 (3d6 c2 B4 | %88
 A8 (3z4 z4 e4 | (3:2:2f8 e4 (3d6 c2 B4 | A8 (3z4 z4 e4 | (3:2:2f8 e4 (3d6 c2 B4 | A6 G2 E4 F4- | %93
 F2 D2 D6 E2 G4 | F2 D2 F6 G2 _B4 | z4 G6 A2 c4 | _B6 A2 F4 G4 | z4 D6 E2 G4 | z4 F6 G2 _B4 | %99
 A4 F4 _B8 | !fermata!A16 |] %101
V:3
 z16 | z16 | z16 | z16 | z16 | z16 | z16 | z16 | D16 | C16 | D16 | C16 | D16 | F16 | E16 | D16 | %16
 z16 | z16 | z16 | z16 | z16 | z16 | z16 | z16 | A16 | G16 | A16 | G16 | A16 | c16 | B16 | A16 | %32
 z16 | z16 | z16 | z16 | z16 | z16 | z16 | z16 | d16 | c16 | d16 | c16 | d16 | f16 | e16 | d16 | %48
 !fermata!d16 || z16 | z16 | z16 | z16 | z16 | z16 | z16 | z16 | D16 | C16 | D16 | C16 | D16 | %62
 F16 | E16 | D16 | z16 | z16 | z16 | z16 | z16 | z16 | z16 | z16 | A16 | G16 | A16 | G16 | A16 | %78
 c16 | B16 | A16 | z16 | z16 | z16 | z16 | z16 | z16 | z16 | z16 | d16 | c16 | d16 | c16 | d16 | %94
 f16 | e16 | d16- | d16- | d16- | d16- | !fermata!d16 |] %101
V:4
 z16 | z16 | z16 | z16 | z16 | z8 A,,8 | _B,,8 B,,8 | A,,8 z4 A,,4 | _B,,4 B,,4 B,,4 B,,4 | %9
 A,,8 z4 A,,4 | _B,,4 G,,4 B,,8 | A,,8 z4 A,,4 | _B,,4 B,,4 B,,4 B,,4 | A,,4 F,,6 G,,2 A,,2 B,,2 | %14
 C,4 D,4 A,,8 | A,8 _B,4 A,4- | A,4 F,4 G,4 A,4 | F,6 D,2 E,4 D,4 | z4 D,4 C,4 D,4- | %19
 D,2 E,2 F,2 D,2 E,4 D,4 | z16 | z16 | z16 | z8 E,8 | F,4 D,4 F,8 | E,8 z4 G,4 | F,4 D,4 F,8 | %27
 E,8 z4 G,4 | F,4 D,4 F,6 E,2 | C,4 A,,6 B,,2 C,2 D,2 | E,4 F,4 E,8 | A,,4 D,4 C,4 D,4- | %32
 D,2 E,2 F,2 G,2 A,4 _B,4- | B,2 A,2 A,8 G,4 | A,4 C4 B,8 | A,8 z4 G,4 | A,4 F,6 D,2 E,4 | %37
 F,4 D,6 B,,2 C,4 | D,2 E,2 F,2 G,2 E,2 D,2 A,4 | _B,2 A,2 D6 ^C2 C2 B,2 | D8 z4 G,4 | %41
 A,4 F,4 A,8 | G,8 z4 G,4 | A,4 F,4 A,8 | G,8 z4 G,4 | F,4 D,4 F,6 E,2 | C,6 D,2 E,2 F,2 G,4- | %47
 G,4 F,4 G,8 | !fermata!D,16 || D,16 | C,8 C,8 | D,6 C,2 D,2 E,2 F,4- | %52
 F,4 E,2 D,2 C,2 D,2 E,2 C,2 | D,16 | z16 | z16 | z16 | A,8 _B,4 A,4- | A,4 G,2 F,2 E,8 | %59
 D,4 A,4 _B,4 A,4- | A,4 G,2 F,2 E,8 | D,8 z4 D,4- | D,4 D,4 D,4 D,4 | G,4 E,4 G,4 C,4 | %64
 F,6 G,2 A,4 D,4 | G,6 E,2 E,4 C,4- | C,4 A,,4 A,,8 | z4 A,4 F,4 G,4 | A,4 D,4 z4 D,4 | %69
 E,4 F,4 G,4 E,4- | E,2 C,2 C,4 z4 C,4 | D,4 E,4 F,4 D,4 | E,4 F,4 G,4 A,4- | A,2 G,2 F,2 E,2 F,8 | %74
 E,8 z4 E,4 | F,4 D,6 E,2 F,4 | G,4 C,6 D,2 E,4 | F,4 D,4 F,6 G,2 | A,8 z4 A,,4 | E,6 F,2 G,4 E,4 | %80
 F,4 D,4 F,6 G,2 | A,8 z4 A,,4 | E,6 F,2 G,4 E,4 | F,4 D,4 F,6 G,2 | A,8 z4 A,,4 | %85
 E,6 F,2 G,4 D,4 | F,6 G,2 A,8 | D,8 z4 G,4 | A,6 G,2 F,4 E,4 | D,8 z4 G,4 | A,6 G,2 F,4 E,4 | %91
 D,8 z4 F,,4 | A,,6 B,,2 C,4 F,,4 | _B,,6 C,2 D,4 G,,4 | D,6 E,2 F,4 _B,,4 | C,6 D,2 E,4 A,,4 | %96
 _B,,6 C,2 D,4 G,,4 | (D,8 G,,8) | D,16- | D,16- | !fermata!D,16 |] %101

